src/lib/packages/icons/src/assets/filled/message-times-alt.svg

<svg width="24" height="24" viewBox="0 0 24 24" fill="none" xmlns="http://www.w3.org/2000/svg">
<path d="M18 3H6C4 3 3 4 3 6V21L6 18H18C20 18 21 17 21 15V6C21 4 20 3 18 3ZM15.03 12.47C15.323 12.763 15.323 13.238 15.03 13.531C14.884 13.677 14.692 13.751 14.5 13.751C14.308 13.751 14.116 13.678 13.97 13.531L12 11.561L10.03 13.531C9.88403 13.677 9.692 13.751 9.5 13.751C9.308 13.751 9.11597 13.678 8.96997 13.531C8.67697 13.238 8.67697 12.763 8.96997 12.47L10.9399 10.5L8.96997 8.53003C8.67697 8.23703 8.67697 7.76199 8.96997 7.46899C9.26297 7.17599 9.73801 7.17599 10.031 7.46899L12.001 9.43896L13.9709 7.46899C14.2639 7.17599 14.739 7.17599 15.032 7.46899C15.325 7.76199 15.325 8.23703 15.032 8.53003L13.062 10.5L15.03 12.47Z" fill="currentColor"/>
</svg>

<svg xmlns="http://www.w3.org/2000/svg" width="24" height="24" fill="none"><path fill="currentColor" d="M18 3H6C4 3 3 4 3 6v15l3-3h12c2 0 3-1 3-3V6c0-2-1-3-3-3Zm-2.97 9.47a.75.75 0 0 1-1.06 1.061L12 11.561l-1.97 1.97a.748.748 0 0 1-1.06 0 .75.75 0 0 1 0-1.061l1.97-1.97-1.97-1.97a.75.75 0 0 1 1.061-1.061l1.97 1.97 1.97-1.97a.75.75 0 0 1 1.061 1.061l-1.97 1.97 1.968 1.97Z"/></svg>
